www/assets/icons/timer_10_select.svg

<svg xmlns="http://www.w3.org/2000/svg" width="24" height="24" viewBox="0 0 24 24" fill='currentColor'><path d="M13 8v8h-3V8zm0-3h-3C8.34 5 7 6.34 7 8v8c0 1.66 1.34 3 3 3h3c1.66 0 3-1.34 3-3V8c0-1.66-1.34-3-3-3M1 8h2v11h3V5H1zm17.5 3c-.83 0-1.5.68-1.5 1.5v2c0 .82.67 1.5 1.5 1.5H21v1h-4v2h4.5c.83 0 1.5-.67 1.5-1.5v-2c0-.83-.67-1.5-1.5-1.5H19v-1h4v-2z"/></svg>

<svg width="24" height="24" viewBox="0 0 24 24" xmlns="http://www.w3.org/2000/svg" fill='currentColor'><path d="M13 8V16H10V8H13ZM13 5H10C8.34 5 7 6.34 7 8V16C7 17.66 8.34 19 10 19H13C14.66 19 16 17.66 16 16V8C16 6.34 14.66 5 13 5ZM1 8H3V19H6V5H1V8ZM18.5 11C17.67 11 17 11.68 17 12.5V14.5C17 15.32 17.67 16 18.5 16H21V17H17V19H21.5C22.33 19 23 18.33 23 17.5V15.5C23 14.67 22.33 14 21.5 14H19V13H23V11H18.5Z"/></svg>
